X:129
T:Debauchè. JJo8.129, Le
B:J.Johnson Choice Collection Vol 8 1758
Z:vmp.Simon Wilson 2013 www.village-music-project.org.uk
M:C|
L:1/8
Q:1/2=100
K:Bb
|:dcded2d2|cBcdc2c2|BABcd2B2|A2G2^F2D2|dcded4|cBcdc4|BABcd2G2|A2G^FG4:|
|:fefgf2e2|d2c2B4|b2B2Tc2B2|ABcAB2D2|E2c2F2B2|ABcAB2D2|E2c2F2B2|ABcAB3c|
dcded4|cBcdc4|BABcd2B2|A2G2^F2D2|dcded2b2|cBcdc2a2|BABcB2g2|B2A2G4:|
